X:1
T:Title
%%score ( 1 2 ) { 3 | 4 }
L:1/8
Q:1/4=107
M:4/4
K:G
V:1 treble nm="Grand Piano, Soprano"
V:2 treble 
V:3 treble nm="Choir Pad, I Will Pray, 1893"
V:4 bass 
V:1
 GA [GB]2 [GB]2 [DG]2 | [DG]2 [GB]2 [GB]2 [DG]2 | [DG]2 AB cA [Gd]2 | [GB][DA] [DG]6 | %4
w: By~William~Howard~Doane * * * *||||
 GA [GB]2 [GB]2 [DG]2 | [DG]2 [GB]2 [=Fd]2 [Ec]2 | [EG][^DA] [=DB]2 [DG]2 [DB]2 | %7
w: |||
 [DG]2 [DA]2 GF [DG]2- | [DG]2 [GB][Gd]- [Gd]2 [GB]2 | [DG]2 [DA]6 | [FA]>[GB] [Ac]6 | %11
w: ||||
 [GB]>[FA] [GB]6 | Bc [Gd]2 [Gd]2 [GB]2 | [=FG]2 [Ec]6 | [EG]>[^DA] [=DB]6 | [DB]>[DA] [DG]6- | %16
w: |||||
 [DG]2 z2 z4 |] %17
w: |
V:2
 D2 z2 z4 | x8 | z2 E2 E2 z2 | x8 | D2 z2 z4 | x8 | x8 | z4 D2 z2 | x8 | x8 | x8 | x8 | G2 z2 z4 | %13
 x8 | x8 | x8 | x8 |] %17
V:3
 B,C D2 D2 B,2 | B,2 D2 D2[K:bass] B,2 | G,2 G,^G, A,2 B,2 | DC B,6 | B,C D2 D2[K:bass] B,2 | %5
 B,2 D2 G,2 G,2 | G,2 G,2 B,2 G,2 | B,2 C2 B,A, B,2- | B,2 DB,- B,2 D2 | G,2 F,2 F,>F, F,2 | %10
 z4[K:treble] D>D D2 | z4 D>D D2 | DA,[K:bass] B,2 B,2 D2 | B,2 G,2 G,2 G,2 | G,>G, G,2 G,>G, G,2 | %15
 F,>C B,6- | B,2 z2 z4 |] %17
V:4
 G,2 G,2 G,2 G,2 | G,2 G,2 G,2 G,2 | B,,2 C,B,, A,,C, D,2 | D,2 G,6 | G,2 G,2 G,2 G,2 | %5
 G,2 G,2 B,,2 C,2 | C,2 D,2 D,2 D,2 | D,2 D,2 D,2 G,,2- | G,,2 G,G,- G,2 G,2 | B,,2 D,2 D,>D, D,2 | %10
 z4 D,>D, D,2 | z4 G,>G, G,2 | G,2 G,2 G,2 G,2 | G,2 C,2 C,2 C,2 | C,>C, D,2 D,>D, D,2 | %15
 D,>D, G,,6- | G,,2 z2 z4 |] %17

